src/lib/packages/icons/src/assets/filled/compass.svg

<svg width="24" height="24" viewBox="0 0 24 24" fill="none" xmlns="http://www.w3.org/2000/svg">
<path d="M12 2C6.477 2 2 6.477 2 12C2 17.523 6.477 22 12 22C17.523 22 22 17.523 22 12C22 6.477 17.523 2 12 2ZM16.926 8.3811L14.992 13.2141C14.676 14.0031 14.052 14.63 13.265 14.948L8.386 16.9231C7.567 17.2551 6.75 16.444 7.074 15.623L9.004 10.7251C9.323 9.9151 9.96599 9.27496 10.777 8.95996L15.63 7.07104C16.447 6.75204 17.252 7.5651 16.926 8.3811ZM13 12C13 12.552 12.552 13 12 13C11.448 13 11 12.552 11 12C11 11.448 11.448 11 12 11C12.552 11 13 11.448 13 12Z" fill="currentColor"/>
</svg>

<svg xmlns="http://www.w3.org/2000/svg" width="24" height="24" fill="none"><path fill="currentColor" d="M12 2C6.477 2 2 6.477 2 12s4.477 10 10 10 10-4.477 10-10S17.523 2 12 2Zm4.926 6.381-1.934 4.833a3.122 3.122 0 0 1-1.727 1.734l-4.879 1.975c-.819.332-1.636-.479-1.312-1.3l1.93-4.898a3.12 3.12 0 0 1 1.773-1.765l4.853-1.889c.817-.319 1.622.494 1.296 1.31ZM13 12a1 1 0 1 1-2 0 1 1 0 0 1 2 0Z"/></svg>
